src/assets/svg/icons/fa/nuevos/classic/thin/rectangle-vertical-history classic thin.svg

<svg xmlns="http://www.w3.org/2000/svg" viewBox="0 0 576 512"><path d="M192 64C192 28.65 220.7 0 256 0H512C547.3 0 576 28.65 576 64V448C576 483.3 547.3 512 512 512H256C220.7 512 192 483.3 192 448V64zM208 64V448C208 474.5 229.5 496 256 496H512C538.5 496 560 474.5 560 448V64C560 37.49 538.5 16 512 16H256C229.5 16 208 37.49 208 64zM96 56C96 51.58 99.58 48 104 48C108.4 48 112 51.58 112 56V456C112 460.4 108.4 464 104 464C99.58 464 96 460.4 96 456V56zM0 104C0 99.58 3.582 96 8 96C12.42 96 16 99.58 16 104V408C16 412.4 12.42 416 8 416C3.582 416 0 412.4 0 408V104z"/></svg>

<svg xmlns="http://www.w3.org/2000/svg" viewBox="0 0 576 512"><!--! Font Awesome Pro 6.4.0 by @fontawesome - https://fontawesome.com License - https://fontawesome.com/license (Commercial License) Copyright 2023 Fonticons, Inc. --><path d="M256 16c-26.5 0-48 21.5-48 48V448c0 26.5 21.5 48 48 48H512c26.5 0 48-21.5 48-48V64c0-26.5-21.5-48-48-48H256zM192 64c0-35.3 28.7-64 64-64H512c35.3 0 64 28.7 64 64V448c0 35.3-28.7 64-64 64H256c-35.3 0-64-28.7-64-64V64zM96 56c0-4.4 3.6-8 8-8s8 3.6 8 8V456c0 4.4-3.6 8-8 8s-8-3.6-8-8V56zM0 104c0-4.4 3.6-8 8-8s8 3.6 8 8V408c0 4.4-3.6 8-8 8s-8-3.6-8-8V104z"/></svg>
